static/assets/img/icons/theme/general/clip.svg

<svg height="24" viewBox="0 0 24 24" width="24" xmlns="http://www.w3.org/2000/svg"><g fill="none" fill-rule="evenodd"><path d="m0 0h24v24h-24z" opacity="0"/><path d="m14 16h-2v-3.5c0-.8284271-.6715729-1.5-1.5-1.5-.82842712 0-1.5.6715729-1.5 1.5v5c0 1.9329966 1.5670034 3.5 3.5 3.5s3.5-1.5670034 3.5-3.5v-10c0-1.93299662-1.5670034-3.5-3.5-3.5h-.5c-1.6568542 0-3 1.34314575-3 3h-2c0-2.76142375 2.23857625-5 5-5h.5c3.0375661 0 5.5 2.46243388 5.5 5.5v10c0 3.0375661-2.4624339 5.5-5.5 5.5-3.03756612 0-5.5-2.4624339-5.5-5.5v-5c0-1.9329966 1.56700338-3.5 3.5-3.5 1.9329966 0 3.5 1.5670034 3.5 3.5z" fill="#000" fill-rule="nonzero" transform="matrix(.70710678 .70710678 -.70710678 .70710678 12.5 -5.17767)"/></g></svg>

<svg width="24px" height="24px" viewBox="0 0 24 24" version="1.1" xmlns="http://www.w3.org/2000/svg" xmlns:xlink="http://www.w3.org/1999/xlink">
    <title>Icon For Clip</title>
    <g stroke="none" stroke-width="1" fill="none" fill-rule="evenodd">
        <rect opacity="0" x="0" y="0" width="24" height="24"></rect>
        <path d="M14,16 L12,16 L12,12.5 C12,11.6715729 11.3284271,11 10.5,11 C9.67157288,11 9,11.6715729 9,12.5 L9,17.5 C9,19.4329966 10.5670034,21 12.5,21 C14.4329966,21 16,19.4329966 16,17.5 L16,7.5 C16,5.56700338 14.4329966,4 12.5,4 L12,4 C10.3431458,4 9,5.34314575 9,7 L7,7 C7,4.23857625 9.23857625,2 12,2 L12.5,2 C15.5375661,2 18,4.46243388 18,7.5 L18,17.5 C18,20.5375661 15.5375661,23 12.5,23 C9.46243388,23 7,20.5375661 7,17.5 L7,12.5 C7,10.5670034 8.56700338,9 10.5,9 C12.4329966,9 14,10.5670034 14,12.5 L14,16 Z" fill="#000000" fill-rule="nonzero" transform="translate(12.500000, 12.500000) rotate(-315.000000) translate(-12.500000, -12.500000) "></path>
    </g>
</svg>
